remix/Media/image-fill.svg

<svg viewBox="0 0 24 24" fill="currentColor" xmlns="http://www.w3.org/2000/svg"><path d="M20 5H4V19L13.2923 9.70649C13.6828 9.31595 14.3159 9.31591 14.7065 9.70641L20 15.0104V5ZM2 3.9934C2 3.44476 2.45531 3 2.9918 3H21.0082C21.556 3 22 3.44495 22 3.9934V20.0066C22 20.5552 21.5447 21 21.0082 21H2.9918C2.44405 21 2 20.5551 2 20.0066V3.9934ZM8 11C6.89543 11 6 10.1046 6 9C6 7.89543 6.89543 7 8 7C9.10457 7 10 7.89543 10 9C10 10.1046 9.10457 11 8 11Z"/></svg>

<svg viewBox="0 0 24 24" xmlns="http://www.w3.org/2000/svg"><path fill="none" d="M0 0h24v24H0Z"/><path d="M20 5H4v14l9.292-9.3v0c.39-.4 1.02-.4 1.41 0l5.29 5.3V4.99ZM2 3.99h0c0-.55.44-.99.992-1H21c.54 0 .99.44.99.99v16.01h0c-.01.54-.45.98-1 .99H2.97v0c-.55-.01-1-.45-1-1V3.96Zm6 7v0c-1.11 0-2-.9-2-2 0-1.11.89-2 2-2v0c1.1 0 2 .89 2 2 0 1.1-.9 2-2 2Z"/></svg>
